packages/tokens/icons/filter/size24Px.svg

<svg viewBox="0 0 24 24" fill="none" xmlns="http://www.w3.org/2000/svg" width="1em" height="1em"><path d="M19.5 4.00004L19.5 5.3613C19.5 5.49057 19.4499 5.61482 19.3603 5.70797L13.9191 11.363C13.6502 11.6425 13.5 12.0152 13.5 12.403L13.5 20C13.5 20.2761 13.2761 20.5 13 20.5L11 20.5C10.7238 20.5 10.5 20.2761 10.5 20L10.5 12.403C10.5 12.0152 10.3498 11.6425 10.0809 11.363L4.63968 5.70794C4.55005 5.61478 4.49998 5.49053 4.49998 5.36126L4.49999 4C4.5 3.72386 4.72385 3.5 4.99999 3.5L19 3.50004C19.2762 3.50004 19.5 3.7239 19.5 4.00004Z" stroke="currentColor" stroke-linejoin="round"/><line x1="5" y1="5.5" x2="19" y2="5.5" stroke="currentColor"/></svg>

<svg xmlns="http://www.w3.org/2000/svg" fill="none" viewBox="0 0 24 24" width="1em" height="1em"><path stroke="currentColor" stroke-linejoin="round" d="M19.5 4v1.361a.5.5 0 0 1-.14.347l-5.44 5.655a1.5 1.5 0 0 0-.42 1.04V20a.5.5 0 0 1-.5.5h-2a.5.5 0 0 1-.5-.5v-7.597a1.5 1.5 0 0 0-.42-1.04L4.64 5.708a.5.5 0 0 1-.14-.347V4a.5.5 0 0 1 .5-.5h14a.5.5 0 0 1 .5.5Z"/><path stroke="currentColor" d="M5 5.5h14"/></svg>
